X:1
T:Title
%%score 1 2
L:1/8
Q:1/4=110
M:4/4
K:A
V:1 treble nm="Grand Piano, Soprano"
V:2 bass nm="Choir Pad, Bellefontaine Neighbors"
V:1
 [Ec]3 [DB] [CA]2 [Ec]2 | [DB]2 [DA]2 [DF]2 [DA]2 | [CE]2 [CA]2 [CA]2 [CA]2 | [EG]2 [EB]2 [EB]4 | %4
w: By~Theodore~Edson~Perkins,~1868 * * *||||
 [Ec]3 [DB] [CA]2 [Ec]2 | [DB]2 [DA]2 [DF]2 [DA]2 | [CE]2 [CA]2 [CA]2 [Ec]2 | [DB]2 [DG]2 [CA]4 | %8
w: ||||
 [Fd]3 [Fd] [Fd]2 [Fd]2 | [Ec]2 [Ed]2 [Ee]2 [Ec]2 | [GB]3 [GB] [GB]2 [FA]2 | [EG]2 [EA]2 [EB]4 | %12
w: ||||
 [Ec]3 [DB] [CA]2 [Ec]2 | [DB]2 [DA]2 [DF]2 [DA]2 | [CE]2 [CA]2 [CA]2 [Ec]2 | [DB]2 [DG]2 [CA]4 | %16
w: ||||
 [Fd]3 [Fd] [Fd]2 [Fd]2 | [Ec]2 [Ed]2 [Ee]2 [Ec]2 | [GB]3 [GB] [GB]2 [FA]2 | [EG]2 [EA]2 [EB]4 | %20
w: ||||
 [Ec]3 [DB] [CA]2 [Ec]2 | [DB]2 [DA]2 [DF]2 [DA]2 | [CE]2 [CA]2 [CA]2 [Ec]2 | [DB]2 [DG]2 [CA]4- | %24
w: ||||
 [CA]4 z4 |] %25
w: |
V:2
 [A,,A,]3 [A,,E,] [A,,E,]2 [A,,E,]2 | [D,F,]2 [D,F,]2 [D,A,]2 [F,A,]2 | A,2 A,2 A,2 A,2 | %3
 [E,B,]2 [E,G,]2 [E,G,]4 | [A,,A,]3 [A,,E,] [A,,E,]2 [A,,E,]2 | [D,F,]2 [D,F,]2 [D,A,]2 [F,A,]2 | %6
 A,2 [A,,A,]2 [A,,A,]2 [A,,A,]2 | [E,G,]2 [E,B,]2 [A,,A,]4 | [D,A,]3 [D,A,] [D,A,]2 [D,A,]2 | %9
 A,2 [A,B,]2 [A,C]2 A,2 | [E,B,]3 [E,B,] [E,B,]2 [E,B,]2 | [E,B,]2 [E,C]2 [E,D]4 | %12
 [A,,A,]3 [A,,E,] [A,,E,]2 [A,,E,]2 | [D,F,]2 [D,F,]2 [D,A,]2 [F,A,]2 | A,2 A,2 A,2 A,2 | %15
 [E,G,]2 [E,B,]2 [A,,A,]4 | [D,A,]3 [D,A,] [D,A,]2 [D,A,]2 | A,2 [A,B,]2 [A,C]2 A,2 | %18
 [E,B,]3 [E,B,] [E,B,]2 [E,B,]2 | [E,B,]2 [E,C]2 [E,D]4 | [A,,A,]3 [A,,E,] [A,,E,]2 [A,,E,]2 | %21
 [D,F,]2 [D,F,]2 [D,A,]2 [F,A,]2 | A,2 A,2 A,2 A,2 | [E,G,]2 [E,B,]2 [A,,A,]4- | [A,,A,]4 z4 |] %25

